X: 1
T: Ways of the World  [A]
O: William Stepp, Kentucky
R: reel
Z: 2011 John Chambers <jc:trillian.mit.edu>
F: http://www.abbamoses.com/fiddledo/waysoftheworld.pdf
M: C|
L: 1/8
K: A
E2- | E2A2 ABcA | BcBA GABG | A2A2 ABcA | BcBG A2E2- |
      E2A2 ABcA | BcBA GABc | d3c dfed | c2A2 A2 :|
|: E2- | E2a2- abaf | =g2g2- g2ef | =gfga bage |[M:6/4] =g2d2 e3d e2E2- |
[M:C|]   E2a2- abaf | =g2g2- g2ef | =gage dfed | c2A2 A2 :|
|: e2- | e4 efed | BdBA GABc | d3c dfed | c2A2 A2 :|
